assets/icons/informations/immersion.svg

<svg viewBox="0 0 24 24" xmlns="http://www.w3.org/2000/svg">
<path d="M9 14C9 11.5 9.875 9.375 11.625 7.625C13.375 5.875 15.5 5 18 5V7C16.05 7 14.396 7.679 13.038 9.037C11.6793 10.3957 11 12.05 11 14H9ZM13 14C13 12.6167 13.4877 11.4373 14.463 10.462C15.4377 9.48733 16.6167 9 18 9V11C17.1667 11 16.4583 11.2917 15.875 11.875C15.2917 12.4583 15 13.1667 15 14H13ZM5 6C4.45 6 3.979 5.804 3.587 5.412C3.19567 5.02067 3 4.55 3 4C3 3.45 3.19567 2.979 3.587 2.587C3.979 2.19567 4.45 2 5 2C5.55 2 6.02067 2.19567 6.412 2.587C6.804 2.979 7 3.45 7 4C7 4.55 6.804 5.02067 6.412 5.412C6.02067 5.804 5.55 6 5 6ZM2 11V8.5C2 8.08333 2.146 7.72933 2.438 7.438C2.72933 7.146 3.08333 7 3.5 7H6.5C7.25 7 7.896 6.76233 8.438 6.287C8.97933 5.81233 9.31667 5.21667 9.45 4.5H11.45C11.35 5.5 10.9833 6.38333 10.35 7.15C9.71667 7.91667 8.93333 8.45 8 8.75V11H2ZM19 17C18.45 17 17.979 16.8043 17.587 16.413C17.1957 16.021 17 15.55 17 15C17 14.45 17.1957 13.979 17.587 13.587C17.979 13.1957 18.45 13 19 13C19.55 13 20.021 13.1957 20.413 13.587C20.8043 13.979 21 14.45 21 15C21 15.55 20.8043 16.021 20.413 16.413C20.021 16.8043 19.55 17 19 17ZM16 22V19.75C15.0667 19.45 14.2833 18.9167 13.65 18.15C13.0167 17.3833 12.65 16.5 12.55 15.5H14.55C14.6833 16.2167 15.0207 16.8127 15.562 17.288C16.104 17.7627 16.75 18 17.5 18H20.5C20.9167 18 21.2707 18.146 21.562 18.438C21.854 18.7293 22 19.0833 22 19.5V22H16Z" fill="inherit"/>
</svg>

<svg viewBox="0 0 24 24" xmlns="http://www.w3.org/2000/svg"><path d="M9 14c0-2.5.9-4.6 2.6-6.4A8.7 8.7 0 0 1 18 5v2c-2 0-3.6.7-5 2-1.3 1.4-2 3-2 5H9Zm4 0c0-1.4.5-2.6 1.5-3.5 1-1 2.1-1.5 3.5-1.5v2c-.8 0-1.5.3-2.1.9-.6.6-.9 1.3-.9 2.1h-2ZM5 6a2 2 0 0 1-1.4-.6A2 2 0 0 1 3 4c0-.5.2-1 .6-1.4A2 2 0 0 1 5 2c.5 0 1 .2 1.4.6.4.4.6.9.6 1.4 0 .5-.2 1-.6 1.4A2 2 0 0 1 5 6Zm-3 5V8.5c0-.4.1-.8.4-1 .3-.4.7-.5 1.1-.5h3c.8 0 1.4-.2 2-.7.5-.5.8-1 1-1.8h2c-.2 1-.5 1.9-1.2 2.7A5 5 0 0 1 8 8.7V11H2Zm17 6a2 2 0 0 1-1.4-.6A2 2 0 0 1 17 15c0-.6.2-1 .6-1.4A2 2 0 0 1 19 13c.6 0 1 .2 1.4.6.4.4.6.8.6 1.4 0 .6-.2 1-.6 1.4a2 2 0 0 1-1.4.6Zm-3 5v-2.3a5 5 0 0 1-3.4-4.2h2a3 3 0 0 0 1 1.8c.5.5 1.2.7 1.9.7h3c.4 0 .8.1 1 .4.4.3.5.7.5 1.1V22h-6Z" fill="inherit"/></svg>
